symbols/web/drafts/materialsymbolssharp/drafts_wght700_24px.svg

<svg xmlns="http://www.w3.org/2000/svg" height="24" width="24"><path d="M1.15 22.075V6.7L12 .225 22.85 6.7v15.375Zm10.85-9.5 7.275-4.35L12 3.875l-7.275 4.35Zm-7.7 6.35h15.4v-8.2L12 15.35l-7.7-4.625Zm0 0h15.4Z"/></svg>

<svg xmlns="http://www.w3.org/2000/svg" height="24" width="24"><path d="M1.15 22.075V6.7L12 0.225L22.85 6.7V22.075ZM12 12.575 19.275 8.225 12 3.875 4.725 8.225ZM4.3 18.925H19.7V10.725L12 15.35L4.3 10.725ZM4.3 18.925H12H19.7Z"/></svg>
